tools/download-figma-icons/icons/solid/detached-house.svg

<svg width="24" height="24" viewBox="0 0 24 24" fill="none" xmlns="http://www.w3.org/2000/svg">
<path fill-rule="evenodd" clip-rule="evenodd" d="M21.1164 4.93121L23.9289 10.9312C24.0384 11.1644 24.0204 11.4359 23.8824 11.6519C23.7451 11.8687 23.5066 11.9999 23.2501 11.9999H16.5002C16.3832 11.9999 16.2684 11.9729 16.1642 11.9204L12.0002 9.83842L7.83551 11.9204C7.73126 11.9729 7.61652 11.9999 7.50027 11.9999H0.750318C0.49382 11.9999 0.255322 11.8687 0.117323 11.6519C-0.0206759 11.4359 -0.0379258 11.1644 0.0708234 10.9312L2.8833 4.93121C3.00705 4.66796 3.2718 4.49997 3.5628 4.49997H4.50029V1.87499C4.50029 1.66499 4.66454 1.49999 4.87529 1.49999H7.12527C7.33527 1.49999 7.50027 1.66499 7.50027 1.87499V4.49997H20.4377C20.7279 4.49997 20.9934 4.66796 21.1164 4.93121ZM18.75 15.7497H17.25C16.8375 15.7497 16.5 16.0872 16.5 16.4997C16.5 16.9122 16.8375 17.2497 17.25 17.2497H18.75C19.1625 17.2497 19.5 16.9122 19.5 16.4997C19.5 16.0872 19.1625 15.7497 18.75 15.7497ZM17.25 20.2497H18.75C19.1625 20.2497 19.5 19.9122 19.5 19.4997C19.5 19.0872 19.1625 18.7497 18.75 18.7497H17.25C16.8375 18.7497 16.5 19.0872 16.5 19.4997C16.5 19.9122 16.8375 20.2497 17.25 20.2497ZM5.25006 17.2497H6.75005C7.16254 17.2497 7.50004 16.9122 7.50004 16.4997C7.50004 16.0872 7.16254 15.7497 6.75005 15.7497H5.25006C4.83756 15.7497 4.50006 16.0872 4.50006 16.4997C4.50006 16.9122 4.83756 17.2497 5.25006 17.2497ZM5.25006 20.2497H6.75005C7.16254 20.2497 7.50004 19.9122 7.50004 19.4997C7.50004 19.0872 7.16254 18.7497 6.75005 18.7497H5.25006C4.83756 18.7497 4.50006 19.0872 4.50006 19.4997C4.50006 19.9122 4.83756 20.2497 5.25006 20.2497ZM12 11.3398L16.1625 13.4172C16.2675 13.4697 16.38 13.4997 16.5 13.4997H22.4999V21.7497C22.4999 22.1622 22.1624 22.4997 21.7499 22.4997H14.25V16.1247C14.25 15.9147 14.085 15.7497 13.875 15.7497H10.125C9.91502 15.7497 9.75002 15.9147 9.75002 16.1247V22.4997H2.25008C1.83759 22.4997 1.50009 22.1622 1.50009 21.7497V13.4997H7.50004C7.62004 13.4997 7.73254 13.4697 7.83754 13.4172L12 11.3398Z" fill="black"/>
</svg>

<svg xmlns="http://www.w3.org/2000/svg" width="24" height="24" fill="none" viewBox="0 0 24 24"><path fill="currentColor" fill-rule="evenodd" d="m21.116 4.931 2.813 6A.748.748 0 0 1 23.25 12H16.5a.75.75 0 0 1-.336-.08L12 9.838 7.836 11.92A.75.75 0 0 1 7.5 12H.75a.75.75 0 0 1-.68-1.069l2.813-6a.75.75 0 0 1 .68-.431H4.5V1.875a.37.37 0 0 1 .375-.375h2.25c.21 0 .375.165.375.375V4.5h12.938a.75.75 0 0 1 .678.431M18.75 15.75h-1.5a.75.75 0 0 0-.75.75c0 .412.337.75.75.75h1.5c.413 0 .75-.338.75-.75a.75.75 0 0 0-.75-.75m-1.5 4.5h1.5c.413 0 .75-.338.75-.75a.75.75 0 0 0-.75-.75h-1.5a.75.75 0 0 0-.75.75c0 .412.337.75.75.75m-12-3h1.5c.413 0 .75-.338.75-.75a.75.75 0 0 0-.75-.75h-1.5a.75.75 0 0 0-.75.75c0 .412.338.75.75.75m0 3h1.5c.413 0 .75-.338.75-.75a.75.75 0 0 0-.75-.75h-1.5a.75.75 0 0 0-.75.75c0 .412.338.75.75.75M12 11.34l4.163 2.077a.75.75 0 0 0 .337.083h6v8.25c0 .412-.338.75-.75.75h-7.5v-6.375a.37.37 0 0 0-.375-.375h-3.75a.37.37 0 0 0-.375.375V22.5h-7.5a.75.75 0 0 1-.75-.75V13.5h6q.18-.002.338-.083z" clip-rule="evenodd"/></svg>
